X:1
T: Mr. Moray of Abercarney
C:Niel Gow
R:Strathspey
Q: 128
K:Gm
M:4/4
L:1/16
|:D2|GG3 B3G d3G Bg3|FF3 A3F c3F Af3|GG3 B3G d3G Bg3|fd3 c3A B3G G2D2|
GG3 B3G d3G Bg3|FF3 A3F c3F Af3|GG3 B3G d3G Bg3|fd3 c3A B3G G2d2|
gb3 db3 ca3 Bg3|Af3 cf3 AF3 F3A|gb3 db3 ca3 Bg3|Ag3 dg3 BG3 G3d|
gb3 db3 ca3 Bg3|Af3 cf3 AF3 F3A|GG3 B3G d3G Bg3|fd3 c3A B3G G2:|
